apps/24/google-chrome.svg

<?xml version="1.0" encoding="UTF-8" standalone="no"?>
<!-- Created with Inkscape (http://www.inkscape.org/) -->

<svg
   xmlns:dc="http://purl.org/dc/elements/1.1/"
   xmlns:cc="http://creativecommons.org/ns#"
   xmlns:rdf="http://www.w3.org/1999/02/22-rdf-syntax-ns#"
   xmlns:svg="http://www.w3.org/2000/svg"
   xmlns="http://www.w3.org/2000/svg"
   xmlns:xlink="http://www.w3.org/1999/xlink"
   xmlns:sodipodi="http://sodipodi.sourceforge.net/DTD/sodipodi-0.dtd"
   xmlns:inkscape="http://www.inkscape.org/namespaces/inkscape"
   width="24"
   height="24"
   id="svg27665"
   version="1.1"
   inkscape:version="0.48.3.1 r9886"
   sodipodi:docname="google-chrome.svg">
  <defs
     id="defs27667">
    <linearGradient
       inkscape:collect="always"
       xlink:href="#linearGradient3874"
       id="linearGradient4172"
       gradientUnits="userSpaceOnUse"
       gradientTransform="translate(-3426.7083,3638.6863)"
       x1="11.00003"
       y1="22"
       x2="11.00003"
       y2="4" />
    <linearGradient
       id="linearGradient3874">
      <stop
         style="stop-color:#000000;stop-opacity:0.58638155;"
         offset="0"
         id="stop3876" />
      <stop
         style="stop-color:#000000;stop-opacity:0.30782217;"
         offset="1"
         id="stop3878" />
    </linearGradient>
    <linearGradient
       y2="4"
       x2="11.00003"
       y1="22"
       x1="11.00003"
       gradientTransform="translate(-2.0082108,-3.9969706)"
       gradientUnits="userSpaceOnUse"
       id="linearGradient3317"
       xlink:href="#linearGradient3874"
       inkscape:collect="always" />
  </defs>
  <sodipodi:namedview
     id="base"
     pagecolor="#ffffff"
     bordercolor="#666666"
     borderopacity="1.0"
     inkscape:pageopacity="0.0"
     inkscape:pageshadow="2"
     inkscape:zoom="32"
     inkscape:cx="10.677703"
     inkscape:cy="11.994041"
     inkscape:document-units="px"
     inkscape:current-layer="layer1"
     showgrid="true"
     inkscape:window-width="1920"
     inkscape:window-height="949"
     inkscape:window-x="-10"
     inkscape:window-y="31"
     inkscape:window-maximized="1"
     inkscape:snap-bbox="true"
     inkscape:bbox-paths="true"
     inkscape:bbox-nodes="true"
     inkscape:snap-bbox-edge-midpoints="true"
     inkscape:snap-bbox-midpoints="true"
     inkscape:object-paths="true"
     inkscape:snap-intersection-paths="true"
     inkscape:object-nodes="true"
     inkscape:snap-smooth-nodes="true"
     inkscape:snap-midpoints="true"
     inkscape:snap-object-midpoints="true"
     inkscape:snap-center="true"
     inkscape:snap-global="true"
     showguides="false"
     inkscape:guide-bbox="true"
     fit-margin-top="0"
     fit-margin-left="0"
     fit-margin-right="0"
     fit-margin-bottom="0"
     inkscape:showpageshadow="false">
    <sodipodi:guide
       orientation="0,1"
       position="-1440.7659,2520.4813"
       id="guide4179" />
    <sodipodi:guide
       orientation="1,0"
       position="-1438.623,2517.6242"
       id="guide4181" />
    <inkscape:grid
       type="xygrid"
       id="grid3296"
       empspacing="5"
       visible="true"
       enabled="true"
       snapvisiblegridlinesonly="true"
       originx="-91.999833px"
       originy="1268px" />
    <sodipodi:guide
       orientation="1,0"
       position="364.00016,-118"
       id="guide3432" />
    <sodipodi:guide
       orientation="0,1"
       position="364.00015,-118"
       id="guide3434" />
    <sodipodi:guide
       orientation="1,0"
       position="129.03299,-111.9666"
       id="guide4416" />
    <sodipodi:guide
       orientation="1,0"
       position="599.00019,-118"
       id="guide4418" />
    <sodipodi:guide
       orientation="0,1"
       position="364.00016,117"
       id="guide4420" />
  </sodipodi:namedview>
  <metadata
     id="metadata27670">
    <rdf:RDF>
      <cc:Work
         rdf:about="">
        <dc:format>image/svg+xml</dc:format>
        <dc:type
           rdf:resource="http://purl.org/dc/dcmitype/StillImage" />
        <dc:title />
      </cc:Work>
    </rdf:RDF>
  </metadata>
  <g
     inkscape:label="Camada 1"
     inkscape:groupmode="layer"
     id="layer1"
     transform="translate(3446.7083,-3639.6863)">
    <path
       id="path3012"
       d="m -3434.7083,3643.6863 c -2.5668,0 -4.8486,1.2143 -6.3125,3.0937 l 2.4063,4.1563 c 0.082,-0.4279 0.2073,-0.8514 0.4375,-1.25 0.7399,-1.2817 2.0881,-1.9983 3.4687,-2 l 6.9063,0 c -1.3847,-2.3857 -3.9493,-4 -6.9063,-4 z m -6.9062,4 c -0.6843,1.179 -1.0938,2.5387 -1.0938,4 0,4.0472 3.0056,7.4041 6.9063,7.9375 l 2.375,-4.1563 c -1.0535,0.3583 -2.242,0.2877 -3.2813,-0.3125 -0.6261,-0.3613 -1.0984,-0.8855 -1.4375,-1.4687 l -0.031,0 -0.125,-0.25 -3.3125,-5.75 z m 6.875,1 c -1.6378,0 -2.9688,1.3311 -2.9688,2.9687 0,1.6378 1.331,2.9688 2.9688,2.9688 1.6376,0 2.9687,-1.331 2.9687,-2.9688 0,-1.6376 -1.3311,-2.9687 -2.9687,-2.9687 z m 2.6875,0 c 1.3919,1.2343 1.779,3.3259 0.8125,5 l -3.4688,6 c 4.4183,0 8,-3.5817 8,-8 0,-1.0597 -0.2195,-2.0744 -0.5937,-3 l -4.75,0 z"
       style="color:#000000;fill:#27303a;fill-opacity:0.75328081999999996;fill-rule:nonzero;stroke:none;marker:none;visibility:visible;display:inline;overflow:visible;enable-background:accumulate"
       inkscape:connector-curvature="0" />
    <path
       style="font-size:medium;font-style:normal;font-variant:normal;font-weight:normal;font-stretch:normal;text-indent:0;text-align:start;text-decoration:none;line-height:normal;letter-spacing:normal;word-spacing:normal;text-transform:none;direction:ltr;block-progression:tb;writing-mode:lr-tb;text-anchor:start;baseline-shift:baseline;color:#000000;fill:#f1f3f5;fill-opacity:0.90288714000000003;fill-rule:nonzero;stroke:none;stroke-width:2;marker:none;visibility:visible;display:inline;overflow:visible;enable-background:accumulate;font-family:Sans;-inkscape-font-specification:Sans"
       d="M 12 2.8125 C 9.304 2.8125 6.96345 4.05235 5.28125 5.90625 L 5.09375 5.59375 L 4.4375 6.78125 L 4.25 7 L 4.28125 7.03125 L 4.0625 7.40625 C 3.2815 8.75195 2.8125 10.3145 2.8125 12 C 2.8125 16.3892 5.9309 19.99815 10.0625 20.90625 L 9.90625 21.1875 L 11.125 21.1875 L 11.53125 21.25 L 11.5625 21.1875 L 12 21.1875 C 17.0668 21.1875 21.1875 17.0668 21.1875 12 C 21.1875 10.9977 20.95185 10.0834 20.65625 9.1875 L 21 9.1875 L 20.3125 8.03125 L 20.21875 7.8125 L 20.1875 7.8125 L 19.9375 7.40625 C 18.3479 4.66755 15.3937 2.8125 12 2.8125 z M 12 4 C 14.957 4 17.52155 5.6143 18.90625 8 L 12 8 C 10.6194 8.0017 9.27115 8.7183 8.53125 10 C 8.30105 10.3986 8.17575 10.8221 8.09375 11.25 L 5.6875 7.09375 C 7.1514 5.21435 9.4332 4 12 4 z M 5.09375 8 L 8.40625 13.75 L 8.53125 14 L 8.5625 14 C 8.9016 14.5832 9.3739 15.10745 10 15.46875 C 11.0393 16.06895 12.22775 16.13955 13.28125 15.78125 L 10.90625 19.9375 C 7.00555 19.4041 4 16.0472 4 12 C 4 10.5387 4.40945 9.179 5.09375 8 z M 11.96875 9 C 13.60635 9 14.9375 10.33115 14.9375 11.96875 C 14.9375 13.60655 13.60635 14.9375 11.96875 14.9375 C 10.33095 14.9375 9 13.60655 9 11.96875 C 9 10.33115 10.33095 9 11.96875 9 z M 14.65625 9 L 19.40625 9 C 19.78045 9.9256 20 10.9403 20 12 C 20 16.4183 16.4183 20 12 20 L 15.46875 14 C 16.43525 12.3259 16.04815 10.2343 14.65625 9 z "
       transform="translate(-3446.7083,3639.6863)"
       id="path3061" />
  </g>
</svg>

<?xml version="1.0" encoding="UTF-8"?>
<!-- Created with Inkscape (http://www.inkscape.org/) -->
<svg width="24" height="24" version="1.1" xmlns="http://www.w3.org/2000/svg" xmlns:cc="http://creativecommons.org/ns#" xmlns:dc="http://purl.org/dc/elements/1.1/" xmlns:rdf="http://www.w3.org/1999/02/22-rdf-syntax-ns#">
	<metadata>
		<rdf:RDF>
			<cc:Work rdf:about="">
				<dc:format>image/svg+xml</dc:format>
				<dc:type rdf:resource="http://purl.org/dc/dcmitype/StillImage"/>
				<dc:title/>
			</cc:Work>
		</rdf:RDF>
	</metadata>
	<defs>
		<style
			id="current-color-scheme"
			type="text/css">
			.ColorScheme-Text {
			color:#090d11;
			}
			.ColorScheme-Background{
			color:#ffffff;
			}
		</style>
	</defs>
	<path d="m12 4c-2.5668 0-4.8486 1.2143-6.3125 3.0937l2.4063 4.1563c0.082-0.4279 0.2073-0.8514 0.4375-1.25 0.7399-1.2817 2.0881-1.9983 3.4687-2h6.9063c-1.3847-2.3857-3.9493-4-6.9063-4zm-6.9062 4c-0.6843 1.179-1.0938 2.5387-1.0938 4 0 4.0472 3.0056 7.4041 6.9063 7.9375l2.375-4.1563c-1.0535 0.3583-2.242 0.2877-3.2813-0.3125-0.6261-0.3613-1.0984-0.8855-1.4375-1.4687h-0.031l-0.125-0.25-3.3125-5.75zm6.875 1c-1.6378 0-2.9688 1.3311-2.9688 2.9687 0 1.6378 1.331 2.9688 2.9688 2.9688 1.6376 0 2.9687-1.331 2.9687-2.9688 0-1.6376-1.3311-2.9687-2.9687-2.9687zm2.6875 0c1.3919 1.2343 1.779 3.3259 0.8125 5l-3.4688 6c4.4183 0 8-3.5817 8-8 0-1.0597-0.2195-2.0744-0.5937-3z" style="fill:currentColor;fill-opacity:0.75;" class="ColorScheme-Text"/>
	<path d="m12 2.8c-2.696 0-5.0365 1.2398-6.7187 3.0937l-0.1875-0.3125-0.6563 1.1875-0.1875 0.2188 0.031 0.031-0.2188 0.375c-0.781 1.3457-1.25 2.9083-1.25 4.5938 0 4.3892 3.1184 7.9981 7.25 8.9062l-0.1562 0.2813h1.2187l0.4063 0.062 0.031-0.062h0.4375c5.0668 0 9.1875-4.1207 9.1875-9.1875 0-1.0023-0.2356-1.9166-0.5312-2.8125h0.3437l-0.6875-1.1563-0.094-0.2187h-0.031l-0.25-0.4063c-1.5896-2.7386-4.5438-4.5937-7.9375-4.5937zm0 1.1875c2.957 0 5.5216 1.6143 6.9063 4h-6.9063c-1.3806 0-2.7288 0.7183-3.4687 2-0.2302 0.3986-0.3556 0.8221-0.4375 1.25l-2.4063-4.1563c1.4639-1.8793 3.7457-3.0937 6.3125-3.0937zm-6.9062 4 3.3125 5.75 0.125 0.25h0.031c0.3391 0.5832 0.8114 1.1074 1.4375 1.4687 1.0393 0.6002 2.2278 0.6708 3.2813 0.3125l-2.375 4.1563c-3.9008-0.5334-6.9063-3.8903-6.9063-7.9375 0-1.4613 0.4095-2.821 1.0938-4zm6.875 1c1.6376 0 2.9687 1.3311 2.9687 2.9687 0 1.6378-1.3311 2.9688-2.9687 2.9688-1.6378 0-2.9688-1.331-2.9688-2.9688 0-1.6376 1.331-2.9687 2.9688-2.9687zm2.6875 0h4.75c0.3742 0.9256 0.5937 1.9403 0.5937 3 0 4.4183-3.5817 8-8 8l3.4688-6c0.9665-1.6741 0.5794-3.7657-0.8125-5z" style="fill:currentColor;fill-opacity:0.5;" class="ColorScheme-Background"/>
</svg>
